X:0078
T:A Spanish Jigg.
M:6/8
L:1/8
Q:3/8=120
I: :: ::
% D E ^F G A B c d e ^f g a
Z:Jack Campin * www.campin.me.uk * 2009
K:G
d/c/|BGG BGG|ABc dec|BGG cGG|ABc d2:|
z   |ddd gee|eee afd|gec dBG|DEF G2:|
<end>
<start>
